X: 3145
T: Beauty Of The North
R: strathspey
M: 4/4
K: Cdorian
A|:C/A3/2 A3/2B/ c3/2d/ e/f3/2|F/F3/2 B3/2A/ GE E2|C/A3/2 A3/2B/ c3/2d/ e/c’3/2|
[1 bg a/g/f/e/ a2 zA:|2 bg a/g/f/e/ a2 zc’||
a3/2c’/ e/c’3/2 a/c’3/2 e’3/2c’/|d’3/2c’/ b3/2a/ g/e3/2 e/c’3/2|
a/c’3/2 e3/2c’/ a/b/c’/d’/ e’c’|d’b a/g/f/e/ a2 ac’|
c’/a3/2 e/c3/2 a/e3/2 c/A3/2|d/c3/2 B3/2A/ G/E3/2 E2|
C/A3/2 A3/2d/ c/a3/2 e/c’3/2|bg a/g/f/e/ a2 a2||

